svgs/thin/chimney.svg

<svg xmlns="http://www.w3.org/2000/svg" viewBox="0 0 448 512"><!--! Font Awesome Pro 6.6.0 by @fontawesome - https://fontawesome.com License - https://fontawesome.com/license (Commercial License) Copyright 2024 Fonticons, Inc. --><path d="M32 48c-8.8 0-16 7.2-16 16l0 64c0 8.8 7.2 16 16 16l384 0c8.8 0 16-7.2 16-16l0-64c0-8.8-7.2-16-16-16L32 48zM0 64C0 46.3 14.3 32 32 32l384 0c17.7 0 32 14.3 32 32l0 64c0 17.7-14.3 32-32 32l0 104 0 112 0 96c0 4.4-3.6 8-8 8s-8-3.6-8-8l0-88-120 0-104 0 0 88c0 4.4-3.6 8-8 8s-8-3.6-8-8l0-88L48 384l0 88c0 4.4-3.6 8-8 8s-8-3.6-8-8l0-96 0-112 0-104c-17.7 0-32-14.3-32-32L0 64zm48 96l0 96 112 0 0-96L48 160zm128 0l0 96 104 0 120 0 0-96-224 0zm-8 208l104 0 0-96-104 0L48 272l0 96 120 0zm120 0l112 0 0-96-112 0 0 96z"/></svg>

<svg xmlns="http://www.w3.org/2000/svg" viewBox="0 0 448 512"><!--! Font Awesome Pro 6.5.2 by @fontawesome - https://fontawesome.com License - https://fontawesome.com/license (Commercial License) Copyright 2024 Fonticons, Inc. --><path d="M32 48c-8.8 0-16 7.2-16 16v64c0 8.8 7.2 16 16 16H416c8.8 0 16-7.2 16-16V64c0-8.8-7.2-16-16-16H32zM0 64C0 46.3 14.3 32 32 32H416c17.7 0 32 14.3 32 32v64c0 17.7-14.3 32-32 32l0 104V376v96c0 4.4-3.6 8-8 8s-8-3.6-8-8V384H280 176v88c0 4.4-3.6 8-8 8s-8-3.6-8-8V384H48v88c0 4.4-3.6 8-8 8s-8-3.6-8-8V376 264l0-104c-17.7 0-32-14.3-32-32V64zm48 96v96H160V160H48zm128 0v96H280 400V160l-224 0zm-8 208H272V272H168 48v96H168zm120 0H400V272H288v96z"/></svg>
